X:81
T:Brig O' Dee, The
R:Strathspey
C:James Young
B:The Athole Collection
M:C
L:1/8
K:D
A|F<A A>F G>FE>D|F<A A>G F>A d2|F<A A>F G>FE>D|G<A,F<A, E/E/E B:|
c/B/|AAf>A|g>Af>A (3efd (3cBA|A<d de/f/ g>fg>b|(3agf (3gfe d2 dc/B/|
AAF>A|G>Af>A e>fg>b|(3aga (3def (3gfg (3Bcd|
(3efd (3cBA (3ABG (3FED||
